img/phone-call.svg

<svg width="14" height="14" viewBox="0 0 14 14" fill="none" xmlns="http://www.w3.org/2000/svg">
<g clip-path="url(#clip0)">
<path d="M11.6666 13.3583C11.6083 13.3583 11.5499 13.3583 11.4916 13.3583C9.62494 13.125 7.75827 12.4833 6.18327 11.4917C4.72494 10.5583 3.4416 9.275 2.50827 7.81667C1.45827 6.24167 0.816602 4.375 0.641602 2.50833C0.641602 2.04167 0.758268 1.575 1.04993 1.225C1.3416 0.875 1.74993 0.641667 2.2166 0.583333C2.27493 0.583333 2.33327 0.583333 2.3916 0.583333H4.1416C5.0166 0.583333 5.77494 1.225 5.8916 2.1C5.94994 2.625 6.0666 3.15 6.2416 3.61667C6.47493 4.25833 6.29994 4.95833 5.83327 5.48333L5.42494 5.89167C6.12494 6.94167 6.99993 7.875 8.10827 8.575L8.5166 8.16667C8.98327 7.7 9.7416 7.525 10.3833 7.75833C10.8499 7.93333 11.3749 8.05 11.8999 8.10833C12.7749 8.225 13.4166 8.98333 13.4166 9.85833V11.6083C13.4166 12.075 13.2416 12.5417 12.8916 12.8333C12.5416 13.125 12.1333 13.3583 11.6666 13.3583ZM4.1416 1.75H2.3916C2.2166 1.75 2.0416 1.86667 1.92493 1.98333C1.8666 2.1 1.80827 2.21667 1.80827 2.39167C1.98327 4.08333 2.5666 5.71667 3.49994 7.175C4.37494 8.51667 5.48327 9.68333 6.82493 10.5C8.28327 11.4333 9.9166 12.0167 11.6083 12.1917C11.8416 12.1917 11.9583 12.1333 12.0749 12.0167C12.1916 11.9 12.2499 11.7833 12.2499 11.6083V9.85833C12.2499 9.56667 12.0166 9.33333 11.7249 9.275C11.1416 9.21667 10.5583 9.04167 9.97494 8.80833C9.7416 8.75 9.50827 8.75 9.33327 8.925L8.57494 9.68333C8.39994 9.85833 8.10827 9.91667 7.87494 9.8C6.29994 8.925 5.0166 7.64167 4.1416 6.06667C4.08327 5.83333 4.1416 5.54167 4.3166 5.36667L5.07494 4.60833C5.1916 4.49167 5.24994 4.2 5.1916 4.025C4.95827 3.44167 4.8416 2.85833 4.72494 2.275C4.72494 1.98333 4.43327 1.75 4.1416 1.75ZM11.0833 5.83333C10.7916 5.83333 10.5583 5.65833 10.4999 5.36667C10.3249 4.43333 9.5666 3.73333 8.63327 3.5C8.3416 3.44167 8.10827 3.15 8.1666 2.8C8.22494 2.50833 8.5166 2.275 8.8666 2.33333C10.2666 2.625 11.3749 3.675 11.6083 5.075C11.6666 5.36667 11.4916 5.71667 11.1416 5.775C11.1416 5.775 11.1416 5.83333 11.0833 5.83333ZM13.4166 5.775C13.1249 5.775 12.8916 5.54167 12.8333 5.25C12.5999 3.09167 10.9083 1.4 8.6916 1.10833C8.39993 1.05 8.1666 0.758333 8.1666 0.466667C8.1666 0.175 8.5166 -0.0583333 8.80827 -0.0583333C11.5499 0.233333 13.6499 2.33333 13.9416 5.075C13.9999 5.36667 13.7666 5.65833 13.4166 5.71667C13.4749 5.775 13.4166 5.775 13.4166 5.775Z" fill="white"/>
</g>
<defs>
<clipPath id="clip0">
<rect width="14" height="14" fill="white"/>
</clipPath>
</defs>
</svg>

<svg width="14" height="14" fill="none" xmlns="http://www.w3.org/2000/svg"><g clip-path="url(#prefix__clip0)"><path d="M11.667 13.358h-.175c-1.867-.233-3.734-.875-5.309-1.866a12.267 12.267 0 01-3.675-3.675A11.617 11.617 0 01.642 2.508c0-.466.116-.933.408-1.283.292-.35.7-.583 1.167-.642h1.925A1.76 1.76 0 015.892 2.1c.058.525.175 1.05.35 1.517.233.641.058 1.341-.409 1.866l-.408.409c.7 1.05 1.575 1.983 2.683 2.683l.409-.408a1.823 1.823 0 011.866-.409 6.39 6.39 0 001.517.35 1.761 1.761 0 011.517 1.75v1.75c0 .467-.175.934-.525 1.225-.35.292-.759.525-1.225.525zM4.142 1.75h-1.75c-.175 0-.35.117-.467.233-.058.117-.117.234-.117.409A10.972 10.972 0 003.5 7.175c.875 1.342 1.983 2.508 3.325 3.325a10.973 10.973 0 004.783 1.692c.234 0 .35-.059.467-.175a.53.53 0 00.175-.409v-1.75c0-.291-.233-.525-.525-.583-.583-.058-1.167-.233-1.75-.467-.233-.058-.467-.058-.642.117l-.758.758a.62.62 0 01-.7.117 9.572 9.572 0 01-3.733-3.733c-.059-.234 0-.525.175-.7l.758-.759c.117-.116.175-.408.117-.583-.234-.583-.35-1.167-.467-1.75 0-.292-.292-.525-.583-.525zm6.941 4.083a.568.568 0 01-.583-.466c-.175-.934-.933-1.634-1.867-1.867a.605.605 0 01-.466-.7.605.605 0 01.7-.467c1.4.292 2.508 1.342 2.741 2.742.059.292-.116.642-.466.7 0 0 0 .058-.059.058zm2.334-.058c-.292 0-.525-.233-.584-.525-.233-2.158-1.925-3.85-4.141-4.142a.683.683 0 01-.525-.641c0-.292.35-.525.641-.525 2.742.291 4.842 2.391 5.134 5.133.058.292-.175.583-.525.642.058.058 0 .058 0 .058z" fill="#fff"/></g><defs><clipPath id="prefix__clip0"><path fill="#fff" d="M0 0h14v14H0z"/></clipPath></defs></svg>
